X: 1444
T: Jimmy's Return
M:C|
L:1/8
B:O'Neill's 1444
Z:"Transcribed by Bob Safranek, rjs@gsp.org"
K:Bm
e | f2 Bc dBfB | cAec aecA | f2 Bc dBfB | cAec dBBe |
    f2 Bc dBfB | cAec aecA | BcdB  cdea | fdec dB B ||
c | Bbfd  BcdB | cAec aecA | Bbfd  BcdB | cAec dBBc |
    Bbfd  BcdB | cAcA aecA | Baga  fgef | dfec dB B |]


